X:1
T:D minor                    Jacob French, 1789
T:Isaac Watts, 1709 (Hymn 14, Book 2)               66. 86. (S M.)
T:The Sabbath
T:Transcribed from  The New American Melody, 1789.
%%score [ 1 2 3 4 ]
L:1/8
Q:1/4=100
M:3/2
K:F
V:1 treble nm="Tr." snm="Tr."
V:2 treble nm="C." snm="C."
V:3 treble-8 nm="T." snm="T."
V:4 bass nm="B." snm="B."
V:1
"^1. Welcome, sweet day ____   of rest, That saw ___  the           Lord               a  –  rise;  Wel–come      to    this            re – vi – ving  breast, And" A4 | %1
 A8 A4 | (A4 B4) A4 | A8 A4 | (A3 B c4) c4 | A8 d4 | ^c8 =c4 | (c4 B4) A4 | A8 A4 | (A3 B c4) d4 | %10
 ^c8 c4 | %11
"^1. these ______  re –  joi             –           cing     eyes!                      The King himself comes near,  And   feasts  his   saints  to   –    day;     Here" (d4 A2 B2) A4 | %12
 (c2 A2 B4) A4 | A12 |:[M:2/2] z4 A4 | A2 A2 A2 d2 | c6 ^c2 | d2 cB A2 d2 | ^c6 cB | %19
"^1.we may sit, and    see    him  here,  And   love  and   praise  and   pray, _____   And   love  and  praise  and  pray." A2 d2 c2 A2 | %20
 A2 d2 ^c2 c2 | dc B2 A2 A2 | (A4 f2) ed | c2 B2 A2 A2 | A8 :| %25
V:2
 D4 | F8 E4 | (F2 A2 G2 F2) E4 | F8 F4 | (E4 F4) G4 | F8 A4 | A8 A4 | (A4 G4) E4 | F8 E4 | %9
 (F4 G4) A4 | A8 A4 | (A3 G F4) E4 | (F4 G4) E4 | F12 |:[M:2/2] z4 D4 | F2 F2 F2 A2 | A6 A2 | %17
 A2 G2 FA GF | E6 E2 | F2 D2 E2 DE | F2 A2 A2 A2 | A2 GF E2 E2 | (F3 G A2) G2 | F2 ED ^C2 C2 | %24
 D8 :| %25
V:3
"^2. One  day   a – midst ____  the place Where my     dear         God _____  hath been, Is  swee   –   ter    than ___  ten   thou – sand   days  Of" A4 | %1
 d8 ^c4 | (d2 f2 e2 d2) ^c4 | d8 d4 | (c3 B A4) (3(G2 A2 B2) | (A4 d4) f4 | e8 e4 | (f3 e d4) c4 | %8
 (A4 d4) ^c4 | (d4 e4) f4 | e8 e4 | %11
"^2. plea          –        su   –   ra             –           ble        sin.                          My willing soul would stay       In     such   a      frame    as         this,     And" (f3 e d4) c4 | %12
 (A2 dc d2 e2) ^c4 | d12 |:[M:2/2] z4 A4 | d2 d2 d2 f2 | e6 e2 | f2 ed c2 B2 | A6 AB | %19
"^2. sit, and sing  her – self     a – way   To          e  –  ver  –  las – ting    bliss,                 To       ev – er   –   las – ting   bliss." c2 B2 A2 A2 | %20
 de f2 e2 e2 | f2 ed ^c2 c2 | d6 cB | A2 G2 F2 E2 | D8 :| %25
V:4
 D,4 | D,8 [A,,A,]4 | ([F,,F,]4 [G,,G,]4) [A,,A,]4 | D,8 D,4 | %4
 ([A,,A,]3 [G,,G,] [F,,F,]4) [E,,E,]4 | ([F,,F,]3 [E,,E,] [D,,D,]4) [D,,D,]4 | [A,,A,]8 [A,,A,]4 | %7
 ([F,,F,]4 [G,,G,]4) [A,,A,]4 | (F,3 E, D,4) A,4 | (F,4 E,4) D,4 | [A,,A,]8 [A,,A,]4 | %11
 (D,3 E, F,2 G,2) A,4 | ([F,,F,]4 [B,,B,]2 [G,,G,]2) [A,,A,]4 | D,12 |:[M:2/2] z4 D,4 | %15
 D,2 D,2 D,2 D,2 | [A,,A,]6 [A,,A,]2 | D,2 E,2 F,2 G,2 | A,6 A,G, | F,2 G,2 A,2 F,2 | %20
 D,2 D,2 [A,,A,]2 [A,,A,][G,,G,] | [F,,F,]2 [G,,G,]2 [A,,A,]2 A,,2 | D,6 E,2 | F,2 G,2 A,2 A,,2 | %24
 D,8 :| %25

